packages/core/src/Assets/SvgComponents/header/payment-methods.svg

<svg width="24" height="24" viewBox="0 0 24 24" fill="none" xmlns="http://www.w3.org/2000/svg">
<path d="M16.5668 3.10092C17.165 2.84077 17.8639 3.10047 18.1409 3.68585L20.887 9.57171C21.1623 10.1554 20.9179 10.8496 20.3353 11.1383L19.5 11.5507V19.7402C19.5 20.3993 19.004 20.9403 18.3722 20.9954L18.2657 21H4.23425C3.55259 21 3 20.436 3 19.7402V11.0098C3 10.314 3.55259 9.75 4.23425 9.75H5.577L5.40202 9.43496C5.25826 9.17971 5.2152 8.88245 5.27822 8.59991L5.31174 8.47989C5.41853 8.16311 5.65503 7.90529 5.96356 7.76936L16.5668 3.10092ZM18.7778 15H3.7215L3.72178 19.7402C3.72178 20.005 3.91458 20.2238 4.16471 20.2585L4.23425 20.2633H18.2657C18.5488 20.2633 18.7782 20.0291 18.7782 19.7402L18.7778 15ZM16.125 15.75C17.1605 15.75 18 16.5895 18 17.625C18 18.6605 17.1605 19.5 16.125 19.5C15.8584 19.5 15.6048 19.4444 15.3751 19.344C15.1458 19.4442 14.8919 19.5 14.625 19.5C13.5895 19.5 12.75 18.6605 12.75 17.625C12.75 16.5895 13.5895 15.75 14.625 15.75C14.8919 15.75 15.1458 15.8058 15.3756 15.9063C15.6048 15.8056 15.8584 15.75 16.125 15.75ZM14.6129 16.5161L14.5181 16.5204C13.9554 16.5742 13.5153 17.0482 13.5153 17.625C13.5153 18.2379 14.0121 18.7347 14.625 18.7347L14.6129 18.7339C14.3848 18.4233 14.25 18.0399 14.25 17.625C14.25 17.2101 14.3848 16.8267 14.6129 16.5161ZM16.1371 16.5161C16.3652 16.8267 16.5 17.2101 16.5 17.625C16.5 18.0399 16.3652 18.4233 16.1371 18.7339C16.744 18.7285 17.2347 18.2341 17.2347 17.625C17.2347 17.0121 16.7379 16.5153 16.125 16.5153L16.1371 16.5161ZM15.3758 16.8078L15.3057 16.8766C15.1253 17.0739 15.0153 17.3366 15.0153 17.625C15.0153 17.9487 15.1539 18.24 15.375 18.4429C15.5961 18.24 15.7347 17.9487 15.7347 17.625C15.7347 17.3017 15.5964 17.0107 15.3758 16.8078ZM18.7778 12.6923H3.7215V14.25H18.7778V12.6923ZM5.9865 10.4865L4.23425 10.4867C3.95122 10.4867 3.72178 10.7209 3.72178 11.0098L3.7215 12H18.5924L18.6647 11.3603L18.668 11.248C18.6661 11.1485 18.6519 11.0408 18.6201 10.9424C18.5503 10.7267 18.4254 10.6224 18.1592 10.6224L6.04662 10.5939L5.9865 10.4865ZM17.4646 3.92003C17.3338 3.72367 17.0758 3.64409 16.8532 3.74088L6.25151 8.40864C6.1245 8.46459 6.02712 8.57075 5.98315 8.70119C5.93918 8.83163 5.95267 8.97434 6.02123 9.09608L6.38475 9.75H7.8585L7.5 8.80726L10.3216 7.5L11.25 9.5922L10.9035 9.75H18.2657C18.8699 9.75 19.3727 10.1931 19.4792 10.7783L20.0186 10.5125C20.2365 10.4045 20.3395 10.1584 20.2708 9.93301L20.245 9.86618L17.499 3.9807L17.4646 3.92003ZM9.99798 8.42529L8.35849 9.18504L8.57325 9.75H9.20475L10.3541 9.22638L9.99798 8.42529ZM18.4801 8.09036L18.5151 8.15804L15.867 9.5335L15.832 9.46582L18.4801 8.09036ZM17.8403 6.82985L17.8753 6.89753L13.9826 8.91949L13.9475 8.85181L17.8403 6.82985Z" fill="url(#paint0_linear)"/>
<defs>
<linearGradient id="paint0_linear" x1="3" y1="21" x2="21" y2="3" gradientUnits="userSpaceOnUse">
<stop stop-color="#FF444F"/>
<stop offset="1" stop-color="#FF6444"/>
</linearGradient>
</defs>
</svg>

<svg width="24" height="24" fill="none" xmlns="http://www.w3.org/2000/svg"><path d="M16.567 3.1c.598-.26 1.297 0 1.574.586l2.746 5.886c.275.583.03 1.278-.552 1.566l-.835.413v8.19c0 .658-.496 1.2-1.128 1.254l-.106.005H4.234A1.247 1.247 0 013 19.74v-8.73c0-.696.553-1.26 1.234-1.26h1.343l-.175-.315a1.178 1.178 0 01-.124-.835l.034-.12c.107-.317.343-.575.652-.71L16.567 3.1zm2.21 11.9H3.722v4.74a.52.52 0 00.444.519l.07.004h14.03a.518.518 0 00.513-.523V15zm-2.652.75a1.875 1.875 0 11-.75 3.594 1.875 1.875 0 110-3.438c.23-.1.483-.156.75-.156zm-1.512.766l-.095.004a1.11 1.11 0 00.107 2.215l-.012-.001a1.867 1.867 0 01-.363-1.109c0-.415.135-.798.363-1.109zm1.524 0c.228.31.363.694.363 1.109 0 .415-.135.798-.363 1.109a1.108 1.108 0 00-.012-2.219l.012.001zm-.761.292l-.07.069a1.107 1.107 0 00.07 1.566 1.107 1.107 0 000-1.635zm3.402-4.116H3.722v1.558h15.056v-1.558zM5.987 10.486H4.233a.518.518 0 00-.512.524V12h14.87l.073-.64.003-.112a1.08 1.08 0 00-.048-.306c-.07-.215-.195-.32-.46-.32l-12.113-.028-.06-.107zM17.465 3.92a.498.498 0 00-.612-.18L6.252 8.41a.486.486 0 00-.23.687l.363.654h1.474L7.5 8.807 10.322 7.5l.928 2.092-.347.158h7.363c.604 0 1.107.443 1.213 1.028l.54-.266a.488.488 0 00.252-.579l-.026-.067-2.746-5.885-.034-.061zM9.998 8.425l-1.64.76.215.565h.632l1.15-.524-.357-.8zm8.482-.335l.035.068-2.648 1.376-.035-.068L18.48 8.09zm-.64-1.26l.035.068-3.892 2.021-.036-.067L17.84 6.83z" fill="url(#paint0_linear)"/><defs><linearGradient id="paint0_linear" x1="3" y1="21" x2="21" y2="3" gradientUnits="userSpaceOnUse"><stop stop-color="#FF444F"/><stop offset="1" stop-color="#FF6444"/></linearGradient></defs></svg>
